build/images/step2.svg

<svg width="419" height="332" viewBox="0 0 419 332" fill="none" xmlns="http://www.w3.org/2000/svg">
<g filter="url(#filter0_d_9_53)">
<path d="M327.581 87.4228C329.44 86.9247 331.141 88.6257 330.643 90.4846L282.654 269.582C282.156 271.441 279.833 272.063 278.472 270.703L147.363 139.594C146.003 138.234 146.625 135.91 148.484 135.412L327.581 87.4228Z" stroke="url(#paint0_linear_9_53)" stroke-width="5" shape-rendering="crispEdges"/>
</g>
<path d="M160.75 254L166 227.75L245.75 165.25C252.417 159.917 257.583 155.25 261.25 151.25C265.083 147.25 267.75 143.5 269.25 140C270.75 136.333 271.5 132.583 271.5 128.75C271.5 122.917 269.333 118.25 265 114.75C260.667 111.25 254.25 109.5 245.75 109.5C238.75 109.5 232 111.083 225.5 114.25C219.167 117.417 213.5 121.917 208.5 127.75L181.25 108C188.417 98.3333 198.167 90.5833 210.5 84.75C222.833 78.9167 236.583 76 251.75 76C264.083 76 274.833 78.0833 284 82.25C293.167 86.25 300.25 91.75 305.25 98.75C310.417 105.75 313 113.833 313 123C313 129.833 311.75 136.5 309.25 143C306.75 149.5 302.583 156.167 296.75 163C291.083 169.667 283.083 177 272.75 185L207.25 235.75L200.75 221H299.75L293.25 254H160.75Z" fill="white"/>
<path d="M1.7 254.467L8.7 219.467H16.8L9.8 254.467H1.7ZM10.25 240.317L11.55 233.617H23.8L22.5 240.317H10.25ZM24.9 254.467L17.35 237.567L24.1 233.817L33.6 254.467H24.9ZM24.3 237.817L16.5 236.917L31.35 219.467H40.45L24.3 237.817ZM54.7746 254.867C52.6079 254.867 50.7079 254.45 49.0746 253.617C47.4746 252.784 46.2746 251.5 45.4746 249.767C44.6746 248 44.3913 245.734 44.6246 242.967C44.8246 239.767 45.4746 236.984 46.5746 234.617C47.7079 232.25 49.2413 230.417 51.1746 229.117C53.1079 227.817 55.3913 227.167 58.0246 227.167C60.1246 227.167 62.0579 227.65 63.8246 228.617C65.5913 229.55 67.0079 230.917 68.0746 232.717C69.1413 234.484 69.6746 236.65 69.6746 239.217C69.6746 241.45 69.2913 243.534 68.5246 245.467C67.7579 247.367 66.6913 249.017 65.3246 250.417C63.9913 251.817 62.4246 252.917 60.6246 253.717C58.8246 254.484 56.8746 254.867 54.7746 254.867ZM35.6246 264.167L42.9246 227.567H50.3246L49.2246 232.917L47.5246 240.917L46.4746 248.917L43.4246 264.167H35.6246ZM53.8746 248.417C55.4413 248.417 56.8079 248.05 57.9746 247.317C59.1413 246.55 60.0579 245.517 60.7246 244.217C61.4246 242.884 61.7746 241.334 61.7746 239.567C61.7746 237.734 61.2413 236.284 60.1746 235.217C59.1079 234.15 57.5913 233.617 55.6246 233.617C54.1246 233.617 52.7746 234 51.5746 234.767C50.3746 235.5 49.4413 236.534 48.7746 237.867C48.1079 239.167 47.7746 240.7 47.7746 242.467C47.7746 244.3 48.3079 245.75 49.3746 246.817C50.4413 247.884 51.9413 248.417 53.8746 248.417ZM86.4379 254.867C83.7046 254.867 81.3212 254.367 79.2879 253.367C77.2546 252.367 75.6712 250.967 74.5379 249.167C73.4379 247.367 72.8879 245.25 72.8879 242.817C72.8879 239.817 73.5879 237.15 74.9879 234.817C76.3879 232.45 78.3046 230.584 80.7379 229.217C83.2046 227.85 86.0046 227.167 89.1379 227.167C91.9046 227.167 94.2879 227.667 96.2879 228.667C98.3212 229.667 99.8879 231.067 100.988 232.867C102.121 234.634 102.688 236.75 102.688 239.217C102.688 242.184 101.988 244.85 100.588 247.217C99.1879 249.584 97.2712 251.45 94.8379 252.817C92.4046 254.184 89.6046 254.867 86.4379 254.867ZM86.9379 248.467C88.4712 248.467 89.8212 248.1 90.9879 247.367C92.1879 246.6 93.1212 245.55 93.7879 244.217C94.4546 242.884 94.7879 241.334 94.7879 239.567C94.7879 237.767 94.2546 236.317 93.1879 235.217C92.1212 234.117 90.6212 233.567 88.6879 233.567C87.1546 233.567 85.7879 233.95 84.5879 234.717C83.4212 235.45 82.4879 236.484 81.7879 237.817C81.1212 239.15 80.7879 240.7 80.7879 242.467C80.7879 244.3 81.3212 245.767 82.3879 246.867C83.4546 247.934 84.9712 248.467 86.9379 248.467ZM124.447 254.467L118.347 241.667L124.797 238.717L133.447 254.467H124.447ZM105.347 254.467L110.747 227.567H118.547L113.147 254.467H105.347ZM112.947 244.267L114.097 238.017H123.547L122.347 244.267H112.947ZM125.097 241.967L117.747 241.067L129.947 227.567H138.447L125.097 241.967Z" fill="white"/>
<defs>
<filter id="filter0_d_9_53" x="114.128" y="54.8323" width="249.106" height="249.106" filterUnits="userSpaceOnUse" color-interpolation-filters="sRGB">
<feFlood flood-opacity="0" result="BackgroundImageFix"/>
<feColorMatrix in="SourceAlpha" type="matrix" values="0 0 0 0 0 0 0 0 0 0 0 0 0 0 0 0 0 0 127 0" result="hardAlpha"/>
<feOffset/>
<feGaussianBlur stdDeviation="15"/>
<feComposite in2="hardAlpha" operator="out"/>
<feColorMatrix type="matrix" values="0 0 0 0 0.121569 0 0 0 0 0.631373 0 0 0 0 1 0 0 0 0.65 0"/>
<feBlend mode="normal" in2="BackgroundImageFix" result="effect1_dropShadow_9_53"/>
<feBlend mode="normal" in="SourceGraphic" in2="effect1_dropShadow_9_53" result="shape"/>
</filter>
<linearGradient id="paint0_linear_9_53" x1="252.533" y1="110.13" x2="285.5" y2="203.967" gradientUnits="userSpaceOnUse">
<stop stop-color="#1FA1FF"/>
<stop offset="1" stop-opacity="0"/>
</linearGradient>
</defs>
</svg>

<svg width="419" height="332" fill="none" xmlns="http://www.w3.org/2000/svg"><g filter="url(#a)"><path d="M327.581 87.423c1.859-.498 3.56 1.203 3.062 3.062l-47.989 179.097c-.498 1.859-2.821 2.481-4.182 1.121L147.363 139.594c-1.36-1.36-.738-3.684 1.121-4.182l179.097-47.99Z" stroke="url(#b)" stroke-width="5" shape-rendering="crispEdges"/></g><path d="m160.75 254 5.25-26.25 79.75-62.5c6.667-5.333 11.833-10 15.5-14 3.833-4 6.5-7.75 8-11.25 1.5-3.667 2.25-7.417 2.25-11.25 0-5.833-2.167-10.5-6.5-14s-10.75-5.25-19.25-5.25c-7 0-13.75 1.583-20.25 4.75-6.333 3.167-12 7.667-17 13.5L181.25 108c7.167-9.667 16.917-17.417 29.25-23.25 12.333-5.833 26.083-8.75 41.25-8.75 12.333 0 23.083 2.083 32.25 6.25 9.167 4 16.25 9.5 21.25 16.5 5.167 7 7.75 15.083 7.75 24.25 0 6.833-1.25 13.5-3.75 20s-6.667 13.167-12.5 20c-5.667 6.667-13.667 14-24 22l-65.5 50.75-6.5-14.75h99l-6.5 33h-132.5Zm-159.05.467 7-35h8.1l-7 35H1.7Zm8.55-14.15 1.3-6.7H23.8l-1.3 6.7H10.25Zm14.65 14.15-7.55-16.9 6.75-3.75 9.5 20.65h-8.7Zm-.6-16.65-7.8-.9 14.85-17.45h9.1l-16.15 18.35Zm30.475 17.05c-2.167 0-4.067-.417-5.7-1.25-1.6-.833-2.8-2.117-3.6-3.85-.8-1.767-1.084-4.033-.85-6.8.2-3.2.85-5.983 1.95-8.35 1.133-2.367 2.666-4.2 4.6-5.5 1.933-1.3 4.216-1.95 6.85-1.95 2.1 0 4.033.483 5.8 1.45 1.766.933 3.183 2.3 4.25 4.1 1.066 1.767 1.6 3.933 1.6 6.5 0 2.233-.384 4.317-1.15 6.25-.767 1.9-1.834 3.55-3.2 4.95a14.63 14.63 0 0 1-4.7 3.3c-1.8.767-3.75 1.15-5.85 1.15Zm-19.15 9.3 7.3-36.6h7.4l-1.1 5.35-1.7 8-1.05 8-3.05 15.25h-7.8Zm18.25-15.75c1.566 0 2.933-.367 4.1-1.1 1.166-.767 2.083-1.8 2.75-3.1.7-1.333 1.05-2.883 1.05-4.65 0-1.833-.534-3.283-1.6-4.35-1.067-1.067-2.584-1.6-4.55-1.6-1.5 0-2.85.383-4.05 1.15-1.2.733-2.134 1.767-2.8 3.1-.667 1.3-1 2.833-1 4.6 0 1.833.533 3.283 1.6 4.35 1.066 1.067 2.566 1.6 4.5 1.6Zm32.563 6.45c-2.733 0-5.117-.5-7.15-1.5-2.033-1-3.617-2.4-4.75-4.2-1.1-1.8-1.65-3.917-1.65-6.35 0-3 .7-5.667 2.1-8 1.4-2.367 3.317-4.233 5.75-5.6 2.467-1.367 5.267-2.05 8.4-2.05 2.767 0 5.15.5 7.15 1.5 2.033 1 3.6 2.4 4.7 4.2 1.133 1.767 1.7 3.883 1.7 6.35 0 2.967-.7 5.633-2.1 8-1.4 2.367-3.317 4.233-5.75 5.6s-5.233 2.05-8.4 2.05Zm.5-6.4c1.533 0 2.883-.367 4.05-1.1 1.2-.767 2.133-1.817 2.8-3.15.667-1.333 1-2.883 1-4.65 0-1.8-.533-3.25-1.6-4.35-1.067-1.1-2.567-1.65-4.5-1.65-1.533 0-2.9.383-4.1 1.15-1.167.733-2.1 1.767-2.8 3.1-.667 1.333-1 2.883-1 4.65 0 1.833.533 3.3 1.6 4.4 1.067 1.067 2.583 1.6 4.55 1.6Zm37.509 6-6.1-12.8 6.45-2.95 8.65 15.75h-9Zm-19.1 0 5.4-26.9h7.8l-5.4 26.9h-7.8Zm7.6-10.2 1.15-6.25h9.45l-1.2 6.25h-9.4Zm12.15-2.3-7.35-.9 12.2-13.5h8.5l-13.35 14.4Z" fill="#fff"/><defs><linearGradient id="b" x1="252.533" y1="110.13" x2="285.5" y2="203.967" gradientUnits="userSpaceOnUse"><stop stop-color="#1FA1FF"/><stop offset="1" stop-opacity="0"/></linearGradient><filter id="a" x="114.128" y="54.832" width="249.106" height="249.106" filterUnits="userSpaceOnUse" color-interpolation-filters="sRGB"><feFlood flood-opacity="0" result="BackgroundImageFix"/><feColorMatrix in="SourceAlpha" values="0 0 0 0 0 0 0 0 0 0 0 0 0 0 0 0 0 0 127 0" result="hardAlpha"/><feOffset/><feGaussianBlur stdDeviation="15"/><feComposite in2="hardAlpha" operator="out"/><feColorMatrix values="0 0 0 0 0.121569 0 0 0 0 0.631373 0 0 0 0 1 0 0 0 0.65 0"/><feBlend in2="BackgroundImageFix" result="effect1_dropShadow_9_53"/><feBlend in="SourceGraphic" in2="effect1_dropShadow_9_53" result="shape"/></filter></defs></svg>
